X:879
T:Copshaw's Hornpipe
C:Tam Hughes
S:GFW Session Tunes CD No.9
N:As played by Lori Watson
Z:Nigel Gatherer
M:4/4
L:1/8
K:G
D>B | G,>B,D>B, G,>CE>C | G,>B,D>G B2 A>B | c c2 A F2 F>G | (3ABA (3GFE (3DED (3CB,A, |
G,>B,D>B, G,>CE>C | G,>B,D>G B2 A>B | c c2 A F>DE>F | G>AB>F G2 :|
B>c | d>BG>B g2 f>g | a>gf>a A2 A>B | c>BA>c f2 f>e | (3ded (3cBA B2
B>c | d>BG>B g2 f>g | a>gf>a A2 A>B | c>BA>c f2 f>e | (3ded (3cBA G2 :|
<end>
<start>
